icons/tv-2-fill.svg

<svg viewBox="0 0 24 24" fill="currentColor" xmlns="http://www.w3.org/2000/svg"><path d="M2 4.00087C2 3.44811 2.45531 3 2.9918 3H21.0082C21.556 3 22 3.44463 22 4.00087V17.9991C22 18.5519 21.5447 19 21.0082 19H2.9918C2.44405 19 2 18.5554 2 17.9991V4.00087ZM5 20H19V22H5V20Z"/></svg>

<svg xmlns="http://www.w3.org/2000/svg" viewBox="0 0 24 24">
    <g>
        <path fill="none" d="M0 0h24v24H0z"/>
        <path d="M2 4c0-.552.455-1 .992-1h18.016c.548 0 .992.445.992 1v14c0 .552-.455 1-.992 1H2.992A.994.994 0 0 1 2 18V4zm3 16h14v2H5v-2z"/>
    </g>
</svg>
